img/svg/footer/socials/inst.svg

<svg width="46" height="46" viewBox="0 0 46 46" fill="none" xmlns="http://www.w3.org/2000/svg">
<circle cx="23" cy="23" r="22.5" fill="#18181B" stroke="url(#paint0_linear_52_1562)"/>
<path d="M22.9962 13.8764C25.9677 13.8764 26.3196 13.8876 27.4934 13.9411C28.1992 13.9497 28.8983 14.0793 29.5602 14.3242C30.0403 14.5094 30.4762 14.793 30.8401 15.1568C31.2039 15.5206 31.4875 15.9566 31.6726 16.4366C31.9175 17.0986 32.0471 17.7977 32.0558 18.5035C32.1088 19.6773 32.1204 20.0292 32.1204 23.0007C32.1204 25.9721 32.1093 26.324 32.0558 27.4978C32.0471 28.2036 31.9175 28.9027 31.6726 29.5647C31.4875 30.0447 31.2039 30.4807 30.8401 30.8445C30.4762 31.2083 30.0403 31.4919 29.5602 31.6771C28.8983 31.922 28.1992 32.0516 27.4934 32.0602C26.3201 32.1132 25.9682 32.1249 22.9962 32.1249C20.0242 32.1249 19.6723 32.1137 18.499 32.0602C17.7933 32.0516 17.0942 31.922 16.4322 31.6771C15.9522 31.4919 15.5162 31.2083 15.1524 30.8445C14.7886 30.4807 14.5049 30.0447 14.3198 29.5647C14.0749 28.9027 13.9453 28.2036 13.9367 27.4978C13.8837 26.324 13.872 25.9721 13.872 23.0007C13.872 20.0292 13.8831 19.6773 13.9367 18.5035C13.9453 17.7977 14.0749 17.0986 14.3198 16.4366C14.5049 15.9566 14.7886 15.5206 15.1524 15.1568C15.5162 14.793 15.9522 14.5094 16.4322 14.3242C17.0942 14.0793 17.7933 13.9497 18.499 13.9411C19.6729 13.8881 20.0248 13.8764 22.9962 13.8764ZM22.9962 11.8711C19.9755 11.8711 19.595 11.8838 18.4079 11.9379C17.4842 11.9562 16.5703 12.1311 15.7051 12.4551C14.9629 12.7347 14.2907 13.173 13.7353 13.7392C13.1685 14.2948 12.7299 14.9674 12.4501 15.7101C12.1262 16.5753 11.9513 17.4892 11.9329 18.4128C11.8799 19.5989 11.8672 19.9794 11.8672 23.0001C11.8672 26.0209 11.8799 26.4014 11.934 27.5885C11.9523 28.5121 12.1272 29.426 12.4512 30.2912C12.7307 31.0338 13.1689 31.7064 13.7353 32.2621C14.291 32.8285 14.9636 33.2667 15.7062 33.5462C16.5714 33.8702 17.4853 34.0451 18.4089 34.0634C19.596 34.1164 19.975 34.1302 22.9973 34.1302C26.0196 34.1302 26.3985 34.1175 27.5856 34.0634C28.5093 34.0451 29.4232 33.8702 30.2884 33.5462C31.0274 33.2597 31.6986 32.8222 32.2589 32.2615C32.8192 31.7008 33.2563 31.0294 33.5423 30.2902C33.8663 29.425 34.0412 28.5111 34.0595 27.5874C34.1125 26.4014 34.1252 26.0209 34.1252 23.0001C34.1252 19.9794 34.1125 19.5989 34.0585 18.4118C34.0401 17.4881 33.8652 16.5742 33.5412 15.709C33.2617 14.9664 32.8235 14.2938 32.2572 13.7381C31.7015 13.1718 31.0288 12.7335 30.2863 12.454C29.4211 12.1301 28.5072 11.9552 27.5835 11.9368C26.3975 11.8838 26.017 11.8711 22.9962 11.8711Z" fill="white"/>
<path d="M23.0002 17.2852C21.8699 17.2852 20.7649 17.6203 19.8251 18.2483C18.8853 18.8763 18.1527 19.7689 17.7202 20.8131C17.2876 21.8574 17.1745 23.0065 17.395 24.1151C17.6155 25.2237 18.1598 26.242 18.9591 27.0413C19.7583 27.8406 20.7766 28.3849 21.8852 28.6054C22.9938 28.8259 24.1429 28.7127 25.1872 28.2802C26.2315 27.8476 27.1241 27.1151 27.752 26.1753C28.38 25.2354 28.7152 24.1305 28.7152 23.0002C28.7152 21.4845 28.1131 20.0308 27.0413 18.959C25.9695 17.8873 24.5159 17.2852 23.0002 17.2852ZM23.0002 26.7099C22.2665 26.7099 21.5492 26.4923 20.9392 26.0847C20.3291 25.677 19.8537 25.0977 19.5729 24.4198C19.2921 23.742 19.2186 22.9961 19.3618 22.2765C19.5049 21.5568 19.8582 20.8958 20.377 20.377C20.8959 19.8582 21.5569 19.5049 22.2765 19.3618C22.9961 19.2186 23.742 19.2921 24.4198 19.5729C25.0977 19.8537 25.677 20.3291 26.0847 20.9392C26.4923 21.5492 26.7099 22.2665 26.7099 23.0002C26.7099 23.984 26.319 24.9276 25.6233 25.6233C24.9276 26.319 23.984 26.7099 23.0002 26.7099Z" fill="white"/>
<path d="M28.937 18.3956C29.6746 18.3956 30.2725 17.7977 30.2725 17.0601C30.2725 16.3225 29.6746 15.7246 28.937 15.7246C28.1995 15.7246 27.6016 16.3225 27.6016 17.0601C27.6016 17.7977 28.1995 18.3956 28.937 18.3956Z" fill="white"/>
<defs>
<linearGradient id="paint0_linear_52_1562" x1="0" y1="23" x2="46" y2="23" gradientUnits="userSpaceOnUse">
<stop offset="0" stop-color="#0CBAF1"/>
<stop offset="1" stop-color="#E95CE9"/>
</linearGradient>
</defs>
</svg>

<svg width="46" height="46" fill="none" xmlns="http://www.w3.org/2000/svg"><circle cx="23" cy="23" r="22.5" fill="#18181B" stroke="url(#a)"/><path d="M22.996 13.876c2.972 0 3.324.012 4.497.065a6.173 6.173 0 0 1 2.067.383 3.687 3.687 0 0 1 2.113 2.113c.245.662.374 1.36.383 2.066.053 1.174.064 1.526.064 4.498 0 2.971-.01 3.323-.064 4.497a6.177 6.177 0 0 1-.383 2.067 3.685 3.685 0 0 1-2.113 2.112 6.173 6.173 0 0 1-2.067.383c-1.173.053-1.525.065-4.497.065s-3.324-.011-4.497-.065a6.174 6.174 0 0 1-2.067-.383 3.687 3.687 0 0 1-2.112-2.112 6.174 6.174 0 0 1-.383-2.067c-.053-1.174-.065-1.526-.065-4.497 0-2.972.011-3.324.065-4.498a6.174 6.174 0 0 1 .383-2.066 3.685 3.685 0 0 1 2.112-2.113 6.174 6.174 0 0 1 2.067-.383c1.174-.053 1.526-.065 4.497-.065Zm0-2.005c-3.02 0-3.401.013-4.588.067a8.168 8.168 0 0 0-2.703.517 5.451 5.451 0 0 0-1.97 1.284 5.45 5.45 0 0 0-1.285 1.971 8.173 8.173 0 0 0-.517 2.703c-.053 1.186-.066 1.566-.066 4.587 0 3.02.013 3.401.067 4.588.018.924.193 1.838.517 2.703a5.45 5.45 0 0 0 1.284 1.971 5.45 5.45 0 0 0 1.971 1.284c.865.324 1.78.5 2.703.517 1.187.053 1.566.067 4.588.067 3.023 0 3.401-.013 4.589-.067a8.168 8.168 0 0 0 2.702-.517 5.697 5.697 0 0 0 3.254-3.256c.324-.865.5-1.779.517-2.703.053-1.186.066-1.566.066-4.587 0-3.02-.013-3.401-.066-4.588a8.171 8.171 0 0 0-.518-2.703 5.452 5.452 0 0 0-1.284-1.97 5.453 5.453 0 0 0-1.97-1.285 8.173 8.173 0 0 0-2.703-.517c-1.186-.053-1.567-.066-4.588-.066Z" fill="#fff"/><path d="M23 17.285a5.715 5.715 0 1 0 0 11.43 5.715 5.715 0 0 0 0-11.43Zm0 9.425a3.71 3.71 0 1 1 0-7.42 3.71 3.71 0 0 1 0 7.42ZM28.937 18.396a1.335 1.335 0 1 0 0-2.671 1.335 1.335 0 0 0 0 2.67Z" fill="#fff"/><defs><linearGradient id="a" x1="0" y1="23" x2="46" y2="23" gradientUnits="userSpaceOnUse"><stop offset="0" stop-color="#0CBAF1"/><stop offset="1" stop-color="#E95CE9"/></linearGradient></defs></svg>
